X: 2089
T: Bonnie Dundee
B: nick
B: to learn
M:6/8
R: jig
Q: 3/8=100
K:Gmajor
V:1 
|B/c/|:"G"d3/2e/d ded|"C"gfe "G"d2 d/c/|"G"BdG BdG|"D"A3/2B/A A2 B/c/|
 "G"d3/2e/d ded|"C"gfe "G"d2 d/c/|BdG "D"AdD|"G"G3/2G/G G2[1B/c/:|2 D||
 |:"G"G/G3/2G GcB|"D"A3/2D/D D2D|"D7"A/A3/2A ABc|"C"c3/2B/B "G"B2 G/A/|
 "G"B3/2A/B "C"cBc|"G"dcd "C"e2d/c/|"G"BdD "D"AdD|"G"G3/2G/G [1 G2D:|2 G3||
% abcbook-tune_id 63455f588d7b7e3acbfba182
% abcbook-link-0 https://www.youtube.com/watch?v=q7rieQhx8wY
% abcbook-link-title-0 Bonnie Dundee

% abcbook-boost 0
% abcbook-tablature 
% abcbook-transpose 
% abcbook-lastupdated 1666788273932
% abcbook-soundfonts 
% abcbook-repeats 3


